img/arrow_left.svg

<svg width="44" height="44" viewBox="0 0 44 44" fill="none" xmlns="http://www.w3.org/2000/svg">
<path d="M0 22C0 9.84974 9.84974 0 22 0V0C34.1503 0 44 9.84974 44 22V22C44 34.1503 34.1503 44 22 44V44C9.84974 44 0 34.1503 0 22V22Z" fill="white" fill-opacity="0.4"/>
<path d="M24.687 16.9797C24.8646 17.1572 24.8807 17.435 24.7355 17.6307L24.687 17.6868L20.3742 21.9999L24.687 26.313C24.8646 26.4905 24.8807 26.7683 24.7355 26.9641L24.687 27.0201C24.5095 27.1976 24.2318 27.2138 24.036 27.0686L23.9799 27.0201L19.3133 22.3535C19.1358 22.176 19.1196 21.8982 19.2649 21.7024L19.3133 21.6464L23.9799 16.9797C24.1752 16.7844 24.4918 16.7844 24.687 16.9797Z" fill="white" stroke="white" stroke-width="0.9"/>
</svg>

<svg width="44" height="44" viewBox="0 0 44 44" fill="none" xmlns="http://www.w3.org/2000/svg"><path d="M0 22C0 9.85 9.85 0 22 0s22 9.85 22 22-9.85 22-22 22S0 34.15 0 22z" fill="#fff" fill-opacity=".4"/><path d="M24.687 16.98a.5.5 0 0 1 .048.65l-.048.057L20.374 22l4.313 4.313a.5.5 0 0 1 .048.651l-.048.056a.5.5 0 0 1-.651.049l-.056-.049-4.667-4.666a.5.5 0 0 1-.048-.652l.048-.056 4.667-4.666a.5.5 0 0 1 .707 0z" fill="#fff" stroke="#fff" stroke-width=".9"/></svg>
